frontend/public/dnifront.svg

<svg xmlns="http://www.w3.org/2000/svg" width="1200" height="720" viewBox="0 0 1200 720"><defs><style>.ink,.thin{fill:none;stroke:#000;stroke-width:8;stroke-linecap:round;stroke-linejoin:round}.thin{stroke-width:5}.label{font-family:&quot;Arial&quot;,&quot;Helvetica&quot;,sans-serif;font-weight:700;font-size:16px;fill:#000}</style></defs><path d="M85 105q5-35 40-35h950q40 0 45 35l5 505q0 40-37 40H125q-35 0-40-40Z" class="ink"/><path d="M95 110q7-25 33-27h940q32 1 40 29l3 492q1 31-25 34H128q-26-1-32-30Zm15 30h980m-980 70h980" class="thin"/><path d="M150 175c0-20 15-35 35-35s35 15 35 35-15 35-35 35-35-15-35-35m100-33h130v66H250Z" class="ink"/><path d="M255 160h120m-120 15h120m-120 15h120" class="thin"/><text x="430" y="178" style="font-family:&quot;Arial&quot;,&quot;Helvetica&quot;,sans-serif;font-weight:800;font-size:44px;fill:#000">REINO DE ESPAÑA</text><text x="430" y="205" style="font-family:&quot;Arial&quot;,&quot;Helvetica&quot;,sans-serif;font-weight:700;font-size:20px;letter-spacing:1px;fill:#000">DOCUMENTO NACIONAL DE IDENTIDAD</text><path d="M995 150q45-5 85 10 25 12 10 38-20 32-70 22-35-8-35-35t10-35" class="ink"/><path d="M1005 170q35-10 70 2m-70 23q35 10 73-5" class="thin"/><path d="M120 245h265v365H120Z" class="ink"/><path d="M135 260h235v335H135Z" class="thin"/><path d="M250 305c-45 0-75 40-75 90 0 55 35 100 75 100s75-45 75-100c0-50-30-90-75-90m-65 280c10-50 40-65 65-65s55 15 65 65" class="ink"/><path d="M205 420q45 25 90 0" class="thin"/><text x="430" y="242" class="label">DNI</text><path d="M480 250h560" class="thin"/><text x="430" y="282" class="label">APELLIDO</text><path d="M520 290h300" class="thin"/><text x="430" y="327" class="label">NOMBRE</text><path d="M520 335h300" class="thin"/><text x="430" y="387" class="label">SEXO</text><path d="M485 395h75" class="thin"/><text x="610" y="387" class="label">NACIONALIDAD</text><path d="M740 395h80" class="thin"/><text x="870" y="387" class="label">NACIMIENTO</text><path d="M980 395h60" class="thin"/><text x="430" y="442" class="label">EMISIÓN</text><path d="M510 450h50" class="thin"/><text x="610" y="442" class="label">VALIDEZ</text><path d="M680 450h60" class="thin"/><path d="M915 430h125v55H915Z" class="ink"/><path d="M930 458h95" class="thin"/><text x="430" y="502" class="label">NUM SOPORTE</text><path d="M560 510h60" class="thin"/><path d="M470 555h270v65H470Z" class="ink"/><path d="M490 590h230" class="thin"/><path d="M865 535h210v85H865Z" class="ink"/><path d="M885 580h170m-635 62h460m-420 18h380" class="thin"/></svg>

<svg xmlns="http://www.w3.org/2000/svg" viewBox="0 0 1200 720" width="1200" height="720">
  <defs>
    <style>
      .ink { fill: none; stroke: #000; stroke-width: 8; stroke-linecap: round; stroke-linejoin: round; }
      .thin { fill: none; stroke: #000; stroke-width: 5; stroke-linecap: round; stroke-linejoin: round; }
      .textTitle { font-family: "Arial", "Helvetica", sans-serif; font-weight: 800; font-size: 44px; fill: #000; }
      .textSub { font-family: "Arial", "Helvetica", sans-serif; font-weight: 700; font-size: 20px; letter-spacing: 1px; fill: #000; }
      .label { font-family: "Arial", "Helvetica", sans-serif; font-weight: 700; font-size: 16px; fill: #000; }
    </style>
  </defs>

  <!-- Card outline -->
  <path class="ink" d="M85,105 Q90,70 125,70 L1075,70 Q1115,70 1120,105 L1125,610 Q1125,650 1088,650 L125,650 Q90,650 85,610 Z"></path>
  <path class="thin" d="M95,110 Q102,85 128,83 L1068,83 Q1100,84 1108,112 L1111,604 Q1112,635 1086,638 L128,638 Q102,637 96,608 Z"></path>

  <!-- Header band -->
  <path class="thin" d="M110,140 L1090,140"></path>
  <path class="thin" d="M110,210 L1090,210"></path>

  <!-- Left icon circle -->
  <path class="ink" d="M150,175 C150,155 165,140 185,140 C205,140 220,155 220,175 C220,195 205,210 185,210 C165,210 150,195 150,175 Z"></path>

  <!-- Flag placeholder (B/W) -->
  <path class="ink" d="M250,142 L380,142 L380,208 L250,208 Z"></path>
  <path class="thin" d="M255,160 L375,160"></path>
  <path class="thin" d="M255,175 L375,175"></path>
  <path class="thin" d="M255,190 L375,190"></path>

  <!-- Readable titles -->
  <text x="430" y="178" class="textTitle">REINO DE ESPAÑA</text>
  <text x="430" y="205" class="textSub">DOCUMENTO NACIONAL DE IDENTIDAD</text>

  <!-- Right chip / hologram placeholder -->
  <path class="ink" d="M995,150 Q1040,145 1080,160 Q1105,172 1090,198 Q1070,230 1020,220 Q985,212 985,185 Q985,158 995,150 Z"></path>
  <path class="thin" d="M1005,170 Q1040,160 1075,172"></path>
  <path class="thin" d="M1005,195 Q1040,205 1078,190"></path>

  <!-- Photo frame -->
  <path class="ink" d="M120,245 L385,245 L385,610 L120,610 Z"></path>
  <path class="thin" d="M135,260 L370,260 L370,595 L135,595 Z"></path>

  <!-- Face silhouette -->
  <path class="ink" d="M250,305 C205,305 175,345 175,395 C175,450 210,495 250,495 C290,495 325,450 325,395 C325,345 295,305 250,305 Z"></path>
  <path class="ink" d="M185,585 C195,535 225,520 250,520 C275,520 305,535 315,585"></path>
  <path class="thin" d="M205,420 Q250,445 295,420"></path>

  <!-- Labels + lines (right side) -->
  <text x="430" y="242" class="label">DNI</text>
  <path class="thin" d="M480,250 L1040,250"></path>

  <text x="430" y="282" class="label">APELLIDO</text>
  <path class="thin" d="M520,290 L820,290"></path>

  <text x="430" y="327" class="label">NOMBRE</text>
  <path class="thin" d="M520,335 L820,335"></path>

  <text x="430" y="387" class="label">SEXO</text>
  <path class="thin" d="M485,395 L560,395"></path>

  <text x="610" y="387" class="label">NACIONALIDAD</text>
  <path class="thin" d="M740,395 L820,395"></path>

  <text x="870" y="387" class="label">NACIMIENTO</text>
  <path class="thin" d="M980,395 L1040,395"></path>

  <text x="430" y="442" class="label">EMISIÓN</text>
  <path class="thin" d="M510,450 L560,450"></path>

  <text x="610" y="442" class="label">VALIDEZ</text>
  <path class="thin" d="M680,450 L740,450"></path>

  <!-- Small right box -->
  <path class="ink" d="M915,430 L1040,430 L1040,485 L915,485 Z"></path>
  <path class="thin" d="M930,458 L1025,458"></path>

  <text x="430" y="502" class="label">NUM SOPORTE</text>
  <path class="thin" d="M560,510 L620,510"></path>

  <!-- Bottom boxes -->
  <path class="ink" d="M470,555 L740,555 L740,620 L470,620 Z"></path>
  <path class="thin" d="M490,590 L720,590"></path>

  <path class="ink" d="M865,535 L1075,535 L1075,620 L865,620 Z"></path>
  <path class="thin" d="M885,580 L1055,580"></path>

  <!-- Footer baseline -->
  <path class="thin" d="M420,642 L880,642"></path>
  <path class="thin" d="M460,660 L840,660"></path>
</svg>
